X:1
T:In Darkness Let Me Dwell
T:In Darkness Let Me Dwell
T:John Dowland
C:John Dowland
%%score 1 { 2 | 3 } 4
L:1/8
Q:1/4=120
M:4/2
K:C
V:1 treble nm="Cantus"
V:2 treble nm="Lute"
V:3 bass 
V:4 bass nm="Bass Viol"
V:1
 z16 | z16 | z16 | z8 E8- | E4 F8 E4- | E2 F2 G4 A8- | A4 ^G2 z4 z2 c4 | B4 A2 =G4 F2 E2 E2 | %8
w: |||In|_ dark- ness|_ let _ me|_ dwell. The|ground, the ground- shall sor- row,|
 E2 DC D4 E8 | z16 | E2 ^F2 G2 E2 B6 A2 | c4 B4 z2 d2 c2 B2- | BA A4 ^G2 A8 | z4 E4 G6 ^FE | %14
w: sor- * * row be.||The roof _ de- spair to|bar all, all cheer- *|* ful light from me.|The walls of _|
 ^F6 F2 E4 G4- | G4 F8 E2 E2 | A12 A4 | ^G4 z2 A2 _B6 cd | A6 A2 G4 z4 | z8 z4 d4 | d4 A2 A2 _B8 | %21
w: mar- ble black that|_ mois- tend, that|mois- tened|still shall weep _ _|still, shall weep.|My|mus- ic, my mus-|
 A8 z4 z2 A2- | A2 G2 G8 ^F4 | G4 B8 E2 E2- | EEAA D2 d4 cB c4- | c2 B2 A2 ^G2 A6 A2 | B16 | %27
w: ic hell-|* ish, hell- ish|jar- ring sounds, jar-|* ring, jar- ring sounds to _ _ ban-|* ish, ban- ish friend- ly|sleep.|
 z8 A8 | d12 c4 | B6 B2 A8 | z4 A4 _B6 B2 | A6 A2 G8- | G8 z8 | z4 e8 z2 ^GA | B3 B B4 z4 d4 | %35
w: Thus,|wed- ded|to my woes|and bed- ded|to my tomb,|_|o, let me|liv- ing die. O,|
 z2 ^FG AAAA c4- cccc | B4 z4 z2 e2 B2 c2 | ^G2 A2 B2 z2 z2 e2 B2 c2 | ^G2 A2 B2 c2 d8- | %39
w: let me liv- ing, let me liv- * ing, liv- ing|die. Till death, till|death do come, till death, till|death do come, till death,|
 d4 cd e2- e2 B4 B2 | A8 z8 | z8 z4 E4- | E4 F8 E4- | E2 F2 G4 A8- | A6 ^G2 z8 |] %45
w: _ til _ _ _ death do|come,|In|_ dark- ness|_ let _ me|_ dwell.|
V:2
 [A,CEA]8 [Ec]4 F4 | c2 E2 [EB]4 [CEA]2 G2 [DG]4 | E2 G2 [D^F]4 ^G2 C2 A2 B,A, | %3
 [B,E]>A^G^F GA G2 [A,CEA]4 A,2 B,2 | C2 A,2 D4 B,8 | C2 D2 [B,E]2 C4 B,A, C2 D2 | %6
 [B,E]8 z4 [A,CEA]4 | [B,EG]4 [A,CF]2 C2 E2 D2 C2 B,2 | A,2 B,C B,2 A,2 B,8 | %9
 E2 ^F2 G2 E2 [B,G]4 F2 A,2 | ^F2 E2 E4 E3 E ^D4 | E8 B,4 E2 D2 | C4 B,4 A,6 A,2 | C6 E2 ^D4 E4- | %14
 E2 E2 ^D4 [CE]6 B,2 | C2 A,2 D8 C2 E2 | [F,A,D]4 C2 B,2 C2 D2 E4- | E4 E4 D8- | D2 D6 D2 G2 ^G4 | %19
 [^CEA]2 [A,F]3 B, [=CE]2 D4 [_B,G]4- | [B,G]2 G2 ^F4 [DG]3 ^C/D/ E4 | E2 D2 D4- D2 D2 ^C2 =C2 | %22
 D2 C2 B,4 B,2 G,2 A,4- | A,2 [G,D]2 G2 ^F2 [B,E]2 D2 [A,C]4 | A,4 F4- F2 ED E4- | %25
 E2 D2 C2 B,2 C2 A,2 A4 | [B,E]2 A2 ^G2 ^F2 [B,EG]8 | [^CEA]4 D4 [A,D^F]4 E4 | D4 =C4 [^G,B,]4 E4 | %29
 [A,B,E]4 ^G,2 =G2 F4 E4 | E2 D2 D2 A,2 [A,D]2 G,2 G,4 | [A,D]6 F2 B,2 F2 [CE]4 | %32
 [CG]2 B,A, B,2 D2 [CE]2 G,D [A,C]2 B,A, | C2 D2 [A,E]4 [^G,B,E]8 | [^G,B,E]4 z4 [B,D]8 | %35
 D8 [A,CE]8 | [B,E^G]4 [B,E]2 C2 [^G,B,E]4 z2 [A,CE]2 | [B,E]6 [CE]2 [^G,CE]4 z2 [A,CE]2 | %38
 [B,E]6 Ec [DB]2 B,2 [CA]2 A,2 | [B,^G]4 [CEA]4 B,3 A G2 E2 | %40
 [CFA]4 A,2 [B,E]D [CE]2 G,D [A,C]2 B,^G, | A,B, A,3 A, ^G,2 C4 A,2 B,2 | C2 A,2 D8 C2 B,2 | %43
 C2 D2 [B,E]2 C4 B,A, C2 D2 | [CE]4 B,4 z8 |] %45
V:3
 [A,,E,]8 [A,,A,]8 | [C,G,C]8 C,4 [B,,G,]4 | [C,A,]4 D,4 E,8 | E,8 [A,,E,]8 | A,8 ^G,8 | %5
 A,4 E,4 F,8 | E,8 z4 [A,,E,]4 | E,4 F,2 [C,G,]4 [D,A,]2 [A,,E,A,]2 G,,2 | F,,8 [E,,B,,E,^G,]8 | %9
 [E,G,B,]8 ^D,8 | [E,G,B,]8 [B,,^F,]6 F,2 | [E,^G,]2 A,4 =G,A, D,2 F,A, E,2 G,2 | %12
 C,3 D, E,2 E,,2 A,,8- | A,,8 B,8 | B,4 B,,4 E,8 | A,,6 B,,2 [C,G,]8 | F,,6 G,,2 [A,,E,]8 | %17
 [E,B,]4 [^C,A,]3 G, [D,^F,]4 G,4- | [D,G,]2 [G,C]2 ^F,4 B,,2 E,3 D, E,2 | %19
 A,,2 D,4 C,2 _B,,2 F,4 A,,G,, | [D,A,]8 [G,,G,]8 | [A,,F,]6 E,D, [A,,E,]8 | D,8 D,,6 C,2 | %23
 B,,8 ^G,,4 [A,,E,]3 =G,, | [F,,F,]6 G,,2 A,,8 | A,,8 A,,8 | B,,8 E,8 | A,,8 D,4 C,4 | %28
 B,,4 A,4 E,4 A,4 | E,4 D,4 [^C,A,]6 G,2 | [D,F,A,]8 G,,8 | [D,G,]3 G, ^F,4 G,,8 | %32
 [G,,D,G,]8 C,8- | C,4 ^C,2 D,2 E,8 | E,4 z E,E,^F, G,6 B,,C, | [D,^F,A,]8 [A,,E,]6 A,,2 | %36
 E,3 ^F, ^G,2 A,2 E,4 z2 A,,2 | E,3 ^F, ^G,2 A,2 E,4 z2 A,,2 | E,3 ^F, ^G,2 A,2 =G,4 =F,4 | %39
 E,8 E,8 | A,,16 | A,2 G,F, E,4 A,,8 | A,,8 ^G,,8 | A,,4 E,,4 F,,8 | E,,8 z8 |] %45
V:4
 A,,16 | C,12 B,,4 | C,4 D,4 E,8- | E,8 A,,8 | A,8 ^G,8 | A,4 E,4 F,8 | E,8 z4 A,,4 | %7
 E,4 F,2 C,4 D,2 A,,2 G,,2 | F,,8 E,,8 | z4 E,4 ^D,8 | E,8 B,,8 | E,4 z2 E,2 D,2 F,2 E,2 G,2 | %12
 C,3 D, E,2 E,,2 A,,8 | z16 | z4 B,,4 E,8 | A,,6 B,,2 C,8 | F,,6 G,,2 A,,2 B,,2 C,2 D,2 | %17
 E,4 ^C,4 D,8 | z4 D,4 B,,2 E,3 D, E,2 | A,,2 D,4 C,2 _B,,6 A,,G,, | D,8 G,,8 | A,,8 A,,8 | %22
 D,,4 z4 D,6 C,2 | B,,6 A,,2 ^G,,4 A,,3 =G,, | F,,6 G,,2 A,,8 | A,,12 A,,4 | E,,16 | A,,8 D,4 C,4 | %28
 B,,8 E,8- | E,4 D,4 ^C,8 | D,8 G,,4 G,,4 | D,8 G,,8 | z8 z4 A,4- | A,4 ^C,2 D,2 E,8- | %34
 E,4 z E,E,^F, G,6 B,,C, | D,8 A,,6 A,2 | E,4 z2 A,,2 E,3 ^F, ^G,2 A,2 | %37
 E,4 z2 A,,2 E,3 ^F, ^G,2 A,2 | E,4 z2 A,2 =G,4 =F,4 | E,12 E,4 | A,,2 A,4 B,2 C2 G,2 A,3 ^G, | %41
 A,2 =G,F, E,D,E, A,,4 z z2 z z | A,,8 ^G,,8 | A,,4 E,,4 F,,8 | E,,2 z2 z4 z8 |] %45

